X:1
T:Title
%%score { ( 1 3 ) | ( 2 4 ) }
L:1/8
M:4/4
K:C
V:1 treble nm="Grand Piano"
V:3 treble 
V:2 bass 
V:4 bass 
V:1
 z4 z2[Q:1/4=100] [G,G]2 | [Ee]2 [Ed]2 [Fc]2 [FA]2 | [EG]>[EA] [EG]>[EA] [EG]2 G>A | G6 z2 | %4
[M:3/4] G6 |[M:1/4] G2 |[M:4/4] [Ee]2 [Ed]2 [Fc]2 [FA]2 | [EG]>[EA] [EG]>[EA] [EG]2 G>A | B6 z2 | %9
[M:3/4] [G,E]6 |[M:1/4] z2 |[M:4/4] [B,F]3 G [B,F]3 G | [Fe]2 [Fe]2- [Fe]d[FB]G | [EA]3 c [EA]3 c | %14
 [EA]6 [CE]2 | [B,F]3 G [B,F]3 G | [FB]2 [FB]2- [FB]AGF | E2 [Ec]2 [Fc]2 [FA]2 | %18
 [EG]6[K:bass][K:treble] z2 | F3 G F3 G | e2 e2- edBG | [EA]3 [Ec] [EA]3 [Ec] | [EA]6 [G,G]2 | %23
 [Ec]2 [Ec]2 c3 G | c2 c2 c3 d | e2 G2 [^Fe]2 [=Fd]2 |[M:3/4] [Ec]6 |] %27
V:2
 z8 | [C,G,]2 [C,G,]2 [C,A,]2 [C,B,]2 | [C,C]>[C,C] [C,C]>[C,C] [C,C]2 z2 | %3
 z2 [G,B,]>[G,C] [G,D]2 z2 |[M:3/4] z2 [C,E,]>[C,F,] [C,G,]2 |[M:1/4] G,2 | %6
[M:4/4] [C,G,]2 [C,G,]2 [C,A,]2 [C,B,]2 | [C,C]>[C,C] [C,C]>[C,C] [C,C]2 z2 | %8
 z2 [B,,G,]>[B,,A,] [B,,B,]2 [B,,A,]2 |[M:3/4] E,6 |[M:1/4] E2 |[M:4/4] G,,2 z B, G,2 z B, | %12
 G,,2 D,2 z[K:treble] F z F | C,2 z E C2 z E | C,2 G,2 C2 G,2 | G,,2 z B, G,2 z B, | %16
 G,,2 D,2 G,[K:treble][G,B,F][G,B,E][K:bass][G,B,D] | [C,G,C]2 [C,G,]2 [C,A,]2 [C,B,]2 | %18
 [C,C]6 [C,G,C]2 | [G,B,D]3 [G,B,D] [G,B,D]3 [G,B,D] | %20
 [G,B,F]2 [G,B,F]2- [G,B,F][G,B,F][G,DF][G,B,F] | [C,C]3 [C,C] [C,C]3 [C,C] | [C,C]6 z2 | %23
 [C,G,]2 [C,G,]2[K:treble] [_B,CE]3 [B,CE] | [A,CF]2 [A,CF]2 [^G,C^F]3 [G,CF] | %25
 [G,CG]2[K:bass] [E,C]2 [D,C]2 [G,B,]2 |[M:3/4] [C,C]6 |] %27
V:3
 x8 | x8 | x8 | z2 D>E F2 G>A |[M:3/4] z2 C>D E2 |[M:1/4] x2 |[M:4/4] x8 | x8 | z2 E>^F G2 [FB]2 | %9
[M:3/4] x6 |[M:1/4] x2 |[M:4/4] x8 | x8 | x8 | x8 | x8 | x8 | x8 | %18
 z2[K:bass] G,2 E,2[K:treble] E2 | x8 | x8 | x8 | x8 | x8 | x8 | x8 |[M:3/4] x6 |] %27
V:4
 x8 | x8 | x8 | x8 |[M:3/4] x6 |[M:1/4] x2 |[M:4/4] x8 | x8 | x8 |[M:3/4] x6 |[M:1/4] x2 | %11
[M:4/4] z2 D,2 z2 D,2 | z4 G,2[K:treble] D,2 | z2 G,2 z2 G,2 | x8 | z2 D,2 z2 D,2 | %16
 x5[K:treble] x2[K:bass] x | x8 | x8 | x8 | x8 | x8 | x8 | x4[K:treble] x4 | x8 | x2[K:bass] x6 | %26
[M:3/4] x6 |] %27

